X: 305840
M: 2/4
L: 1/16
K: G
(Bc) |\
dBcd e2e2 | c2c2 dedc | B2d2 c2B2 | ABcA GFED |\
dBcd e2e2 | c2c2 dedc | B2d2 c2B2 | A2^c2 d=cB"^D.C."A |]
d2d2 e2e2 | f2f2 d2ef | g2g2 f2f2 | efge dcBA |\
d2d2 e2e2 | f2f2 d2ef | g2g2 f2f2 | edef dcB"^D.C."A |]


